the-plus-addons-for-block-editor/assets/images/social-review/style-1.svg

<svg xmlns="http://www.w3.org/2000/svg" width="1000" height="700" fill="none"><path fill="#FCFCFF" d="M0 0h1000v700H0z"/><rect width="726" height="464" x="136.5" y="118.5" fill="#F2F2F2" stroke="#D5D5D5" rx="29.5"/><path stroke="#D5D5D5" stroke-width="5" d="M196 327h606M196 357h606.442M196 387h606.442M196 417h606M196 447h324"/><path stroke="#888" stroke-width="10" d="M368 196h320"/><g clip-path="url(#a)"><path fill="#D5D5D5" d="m390.729 229.962 8.568 1.264c.71.101 1.306.602 1.533 1.288a1.92 1.92 0 0 1-.471 1.956l-6.213 6.093 1.466 8.741a1.911 1.911 0 0 1-2.778 2.004l-7.656-4.085-7.65 4.085a1.921 1.921 0 0 1-2.015-.137 1.899 1.899 0 0 1-.763-1.867l1.466-8.741-6.214-6.093a1.917 1.917 0 0 1-.47-1.956 1.896 1.896 0 0 1 1.534-1.288l8.561-1.264 3.84-7.89a1.903 1.903 0 0 1 3.428 0l3.834 7.89Z"/></g><g clip-path="url(#b)"><path fill="#D5D5D5" d="m429.494 229.962 8.568 1.264a1.902 1.902 0 0 1 1.532 1.288 1.915 1.915 0 0 1-.471 1.956l-6.213 6.093 1.467 8.741a1.904 1.904 0 0 1-.769 1.867 1.913 1.913 0 0 1-2.01.137l-7.655-4.085-7.65 4.085a1.923 1.923 0 0 1-2.016-.137 1.9 1.9 0 0 1-.763-1.867l1.467-8.741-6.214-6.093a1.917 1.917 0 0 1-.471-1.956 1.897 1.897 0 0 1 1.535-1.288l8.56-1.264 3.84-7.89a1.901 1.901 0 0 1 1.712-1.074c.733 0 1.401.417 1.717 1.074l3.834 7.89Z"/></g><g clip-path="url(#c)"><path fill="#D5D5D5" d="m468.258 229.962 8.569 1.264a1.904 1.904 0 0 1 1.532 1.288 1.917 1.917 0 0 1-.471 1.956l-6.213 6.093 1.467 8.741a1.904 1.904 0 0 1-.769 1.867 1.913 1.913 0 0 1-2.01.137l-7.656-4.085-7.649 4.085a1.923 1.923 0 0 1-2.016-.137 1.9 1.9 0 0 1-.763-1.867l1.467-8.741-6.214-6.093a1.917 1.917 0 0 1-.471-1.956 1.896 1.896 0 0 1 1.534-1.288l8.561-1.264 3.84-7.89a1.9 1.9 0 0 1 1.711-1.074c.734 0 1.402.417 1.718 1.074l3.833 7.89Z"/></g><g clip-path="url(#d)"><path fill="#D5D5D5" d="m507.023 229.962 8.568 1.264c.71.101 1.306.602 1.532 1.288a1.915 1.915 0 0 1-.471 1.956l-6.213 6.093 1.467 8.741a1.911 1.911 0 0 1-2.778 2.004l-7.656-4.085-7.65 4.085a1.921 1.921 0 0 1-2.015-.137 1.897 1.897 0 0 1-.763-1.867l1.466-8.741-6.214-6.093a1.917 1.917 0 0 1-.47-1.956 1.896 1.896 0 0 1 1.534-1.288l8.561-1.264 3.84-7.89a1.903 1.903 0 0 1 3.428 0l3.834 7.89Z"/></g><g clip-path="url(#e)"><path fill="#D5D5D5" d="m545.788 229.962 8.568 1.264a1.902 1.902 0 0 1 1.532 1.288 1.915 1.915 0 0 1-.471 1.956l-6.213 6.093 1.467 8.741a1.904 1.904 0 0 1-.769 1.867 1.913 1.913 0 0 1-2.01.137l-7.655-4.085-7.65 4.085a1.923 1.923 0 0 1-2.016-.137 1.9 1.9 0 0 1-.763-1.867l1.467-8.741-6.214-6.093a1.917 1.917 0 0 1-.471-1.956 1.897 1.897 0 0 1 1.535-1.288l8.56-1.264 3.84-7.89a1.901 1.901 0 0 1 1.712-1.074c.733 0 1.401.417 1.717 1.074l3.834 7.89Z"/></g><path fill="#D5D5D5" d="M196 223.5c0 37.832 30.668 68.5 68.5 68.5s68.5-30.668 68.5-68.5-30.668-68.5-68.5-68.5-68.5 30.668-68.5 68.5Z"/><path fill="#F2F2F2" d="M231 257v-8.124c0-8.939 14.625-16.252 32.5-16.252s32.5 7.313 32.5 16.252V257h-65Zm16.248-48.748a16.245 16.245 0 0 1 10.03-15.014 16.246 16.246 0 0 1 22.157 11.84 16.25 16.25 0 1 1-32.187 3.174Z"/><path stroke="#D5D5D5" stroke-width="5" d="M674 512h127.907M286 497h127.907M286 527h128"/><path fill="#D5D5D5" d="M196 512c0 19.33 15.67 35 35 35s35-15.67 35-35-15.67-35-35-35-35 15.67-35 35Z"/><defs><clipPath id="a"><path fill="#fff" d="M368 221h34.344v30.528H368z"/></clipPath><clipPath id="b"><path fill="#fff" d="M406.765 221h34.344v30.528h-34.344z"/></clipPath><clipPath id="c"><path fill="#fff" d="M445.529 221h34.344v30.528h-34.344z"/></clipPath><clipPath id="d"><path fill="#fff" d="M484.294 221h34.344v30.528h-34.344z"/></clipPath><clipPath id="e"><path fill="#fff" d="M523.059 221h34.344v30.528h-34.344z"/></clipPath></defs></svg>

<svg width="1000" height="700" viewBox="0 0 1000 700" fill="none" xmlns="http://www.w3.org/2000/svg">
<rect width="1000" height="700" fill="#FCFCFF"/>
<rect x="136.5" y="118.5" width="726" height="464" rx="29.5" fill="#F2F2F2" stroke="#D5D5D5"/>
<path d="M196 327H802" stroke="#D5D5D5" stroke-width="5"/>
<path d="M196 357H802.442" stroke="#D5D5D5" stroke-width="5"/>
<path d="M196 387H802.442" stroke="#D5D5D5" stroke-width="5"/>
<path d="M196 417H802" stroke="#D5D5D5" stroke-width="5"/>
<path d="M196 447H520" stroke="#D5D5D5" stroke-width="5"/>
<path d="M368 196H688" stroke="#888888" stroke-width="10"/>
<g clip-path="url(#clip0_15_2)">
<path d="M390.729 229.962L399.297 231.226C400.007 231.327 400.603 231.828 400.83 232.514C401.056 233.206 400.871 233.957 400.359 234.47L394.146 240.563L395.612 249.304C395.732 250.02 395.439 250.747 394.843 251.171C394.253 251.594 393.472 251.648 392.834 251.308L385.178 247.223L377.528 251.308C376.884 251.648 376.103 251.594 375.513 251.171C374.923 250.747 374.624 250.02 374.75 249.304L376.216 240.563L370.002 234.47C369.489 233.957 369.306 233.206 369.532 232.514C369.757 231.828 370.351 231.327 371.066 231.226L379.627 229.962L383.467 222.072C383.783 221.415 384.451 220.998 385.178 220.998C385.911 220.998 386.579 221.415 386.895 222.072L390.729 229.962Z" fill="#D5D5D5"/>
</g>
<g clip-path="url(#clip1_15_2)">
<path d="M429.494 229.962L438.062 231.226C438.771 231.327 439.368 231.828 439.594 232.514C439.821 233.206 439.636 233.957 439.123 234.47L432.91 240.563L434.377 249.304C434.496 250.02 434.204 250.747 433.608 251.171C433.017 251.594 432.236 251.648 431.598 251.308L423.943 247.223L416.293 251.308C415.649 251.648 414.868 251.594 414.277 251.171C413.687 250.747 413.389 250.02 413.514 249.304L414.981 240.563L408.767 234.47C408.253 233.957 408.071 233.206 408.296 232.514C408.521 231.828 409.116 231.327 409.831 231.226L418.391 229.962L422.231 222.072C422.547 221.415 423.215 220.998 423.943 220.998C424.676 220.998 425.344 221.415 425.66 222.072L429.494 229.962Z" fill="#D5D5D5"/>
</g>
<g clip-path="url(#clip2_15_2)">
<path d="M468.258 229.962L476.827 231.226C477.536 231.327 478.132 231.828 478.359 232.514C478.585 233.206 478.401 233.957 477.888 234.47L471.675 240.563L473.142 249.304C473.261 250.02 472.969 250.747 472.373 251.171C471.782 251.594 471.001 251.648 470.363 251.308L462.707 247.223L455.058 251.308C454.414 251.648 453.632 251.594 453.042 251.171C452.452 250.747 452.154 250.02 452.279 249.304L453.746 240.563L447.532 234.47C447.018 233.957 446.836 233.206 447.061 232.514C447.286 231.828 447.88 231.327 448.595 231.226L457.156 229.962L460.996 222.072C461.312 221.415 461.98 220.998 462.707 220.998C463.441 220.998 464.109 221.415 464.425 222.072L468.258 229.962Z" fill="#D5D5D5"/>
</g>
<g clip-path="url(#clip3_15_2)">
<path d="M507.023 229.962L515.591 231.226C516.301 231.327 516.897 231.828 517.123 232.514C517.35 233.206 517.165 233.957 516.652 234.47L510.439 240.563L511.906 249.304C512.026 250.02 511.733 250.747 511.137 251.171C510.547 251.594 509.766 251.648 509.128 251.308L501.472 247.223L493.822 251.308C493.178 251.648 492.397 251.594 491.807 251.171C491.216 250.747 490.918 250.02 491.044 249.304L492.51 240.563L486.296 234.47C485.783 233.957 485.6 233.206 485.826 232.514C486.051 231.828 486.645 231.327 487.36 231.226L495.921 229.962L499.761 222.072C500.077 221.415 500.744 220.998 501.472 220.998C502.205 220.998 502.873 221.415 503.189 222.072L507.023 229.962Z" fill="#D5D5D5"/>
</g>
<g clip-path="url(#clip4_15_2)">
<path d="M545.788 229.962L554.356 231.226C555.065 231.327 555.662 231.828 555.888 232.514C556.115 233.206 555.93 233.957 555.417 234.47L549.204 240.563L550.671 249.304C550.79 250.02 550.498 250.747 549.902 251.171C549.311 251.594 548.53 251.648 547.892 251.308L540.237 247.223L532.587 251.308C531.943 251.648 531.162 251.594 530.571 251.171C529.981 250.747 529.683 250.02 529.808 249.304L531.275 240.563L525.061 234.47C524.547 233.957 524.365 233.206 524.59 232.514C524.815 231.828 525.41 231.327 526.125 231.226L534.685 229.962L538.525 222.072C538.841 221.415 539.509 220.998 540.237 220.998C540.97 220.998 541.638 221.415 541.954 222.072L545.788 229.962Z" fill="#D5D5D5"/>
</g>
<path d="M196 223.5C196 261.332 226.668 292 264.5 292C302.332 292 333 261.332 333 223.5C333 185.668 302.332 155 264.5 155C226.668 155 196 185.668 196 223.5Z" fill="#D5D5D5"/>
<path d="M231 257V248.876C231 239.937 245.625 232.624 263.5 232.624C281.375 232.624 296 239.937 296 248.876V257H231ZM247.248 208.252C247.248 205.038 248.2 201.896 249.986 199.224C251.771 196.551 254.308 194.468 257.278 193.238C260.247 192.007 263.514 191.685 266.666 192.312C269.819 192.938 272.714 194.486 274.987 196.758C277.26 199.03 278.808 201.926 279.435 205.078C280.063 208.23 279.741 211.497 278.512 214.467C277.282 217.436 275.2 219.974 272.528 221.76C269.856 223.546 266.714 224.5 263.5 224.5C259.19 224.5 255.057 222.789 252.009 219.742C248.961 216.695 247.249 212.562 247.248 208.252Z" fill="#F2F2F2"/>
<path d="M674 512H801.907" stroke="#D5D5D5" stroke-width="5"/>
<path d="M286 497H413.907" stroke="#D5D5D5" stroke-width="5"/>
<path d="M286 527H414" stroke="#D5D5D5" stroke-width="5"/>
<path d="M196 512C196 531.33 211.67 547 231 547C250.33 547 266 531.33 266 512C266 492.67 250.33 477 231 477C211.67 477 196 492.67 196 512Z" fill="#D5D5D5"/>
<defs>
<clipPath id="clip0_15_2">
<rect width="34.3439" height="30.528" fill="white" transform="translate(368 221)"/>
</clipPath>
<clipPath id="clip1_15_2">
<rect width="34.3439" height="30.528" fill="white" transform="translate(406.765 221)"/>
</clipPath>
<clipPath id="clip2_15_2">
<rect width="34.3439" height="30.528" fill="white" transform="translate(445.529 221)"/>
</clipPath>
<clipPath id="clip3_15_2">
<rect width="34.3439" height="30.528" fill="white" transform="translate(484.294 221)"/>
</clipPath>
<clipPath id="clip4_15_2">
<rect width="34.3439" height="30.528" fill="white" transform="translate(523.059 221)"/>
</clipPath>
</defs>
</svg>
